Origami/64x64/apps/ms-powerpoint.svg

<svg width="64" height="64" version="1.1" viewBox="0 0 64 64" xmlns="http://www.w3.org/2000/svg">
 <path d="m18.600442 6.0406793c-6.898586 0.2341311-12.561535 6.0832687-12.558545 12.977855v13.500556l0.1328115-1.63052c-0.2329447 1.404523-0.2329447 2.835613 0 4.240134l-0.1328115-1.63052v13.336725c-0.049894 3.520594 1.5987593 7.476759 4.2382648 9.845538 2.639506 2.368777 5.771991 3.319553 8.761685 3.319553 2.989693 0 6.122179-0.950776 8.761685-3.319553 2.639506-2.368779 4.288158-6.324944 4.238264-9.845538v-1.400377c0.691901-0.06124 0.747179 0.02472 1.499994-0.06242 3.826183-0.442832 8.077083-1.106313 12.464796-2.948978 2.148132-0.902131 4.846604-2.320407 7.238254-4.790146 2.799008-2.890387 4.7914-6.755774 4.753888-11.682789-0.03718-4.882977-2.05841-8.698586-4.824199-11.530671-2.379201-2.436232-5.047807-3.848288-7.195287-4.755035-4.378041-1.8485751-8.622755-2.5251591-12.437452-2.9801869-7.761382-0.9257997-14.941348-0.6436268-14.941348-0.6436268z" style="opacity:.2"/>
 <path d="m18.600442 5.040687c-6.898586 0.2341311-12.561535 6.083269-12.558545 12.977854v13.500557l0.1328115-1.63052c-0.2329447 1.404522-0.2329447 2.835613 0 4.240133l-0.1328115-1.630519v13.336724c-0.049894 3.520595 1.5987593 7.47676 4.2382648 9.845538 2.639506 2.368777 5.771991 3.319554 8.761685 3.319554 2.989693 0 6.122179-0.950777 8.761685-3.319554 2.639506-2.368778 4.288158-6.324943 4.238264-9.845538v-1.400376c0.691901-0.06124 0.747179 0.02472 1.499994-0.06242 3.826183-0.442832 8.077083-1.106314 12.464796-2.948979 2.148132-0.90213 4.846604-2.320407 7.238254-4.790145 2.799008-2.890387 4.7914-6.755774 4.753888-11.682789-0.037182-4.882977-2.05841-8.698586-4.824199-11.530671-2.379201-2.436233-5.047807-3.8482882-7.195287-4.7550357-4.378041-1.8485747-8.622755-2.5251587-12.437452-2.9801865-7.761382-0.9257997-14.941348-0.6436268-14.941348-0.6436268z" style="fill:#de554c"/>
 <path d="m19.04255 46.958284v-27.999892s25.8979-0.848597 25.9579 7.042773c0.0602 7.89137-25.9579 6.957173-25.9579 6.957173" style="fill:none;opacity:.2;stroke-linecap:round;stroke-linejoin:round;stroke-width:5.9999771;stroke:#000000"/>
 <path d="m18.945263 14.800959a3.0002884 3.0002884 0 0 0 -2.902333 2.999989v13.523384a3.0002884 3.0002884 0 0 0 0 0.980466v13.496043a3.0002884 3.0002884 0 1 0 5.999976 0v-11.124958c2.098594 0.03598 5.122755 0.1915 10.347617-0.414062 3.397449-0.393763 6.833061-1.014856 9.74215-2.238271 1.454544-0.611708 2.805949-1.373241 3.925767-2.531241 1.119816-1.157999 1.955162-2.861471 1.941398-4.671858-0.01374-1.807001-0.86221-3.48994-1.984368-4.640606-1.122156-1.150666-2.47499-1.916158-3.929671-2.53124-2.909365-1.230166-6.340601-1.860702-9.730432-2.265617-6.779662-0.809831-13.410104-0.582029-13.410104-0.582029zm3.097643 6.12107c1.985303-0.02313 4.852682-0.149283 9.601527 0.417968 3.092145 0.369356 6.142069 1.00576 8.105437 1.835931 0.981684 0.415084 1.663124 0.878016 1.968743 1.191401 0.305619 0.313383 0.279989 0.334157 0.281249 0.499998 0.0012 0.162599 0.03764 0.15162-0.253905 0.453122-0.291553 0.301495-0.961297 0.761333-1.937493 1.171872-1.952392 0.821077-5.009817 1.449352-8.109345 1.808587-4.769355 0.552766-7.668924 0.412652-9.656213 0.38281z" style="fill:#ffffff"/>
 <path d="m19.84375 5.0097656c-0.793999 0.0115071-1.242187 0.029297-1.242188 0.0292969-6.898586 0.2341311-12.561584 6.0858825-12.558593 12.980468v1c-0.0029905-6.894586 5.6600072-12.746337 12.558593-12.980468 1e-6 2e-7 1.793431-0.0686193 4.558594-0.0234375 2.765165 0.0451819 6.502122 0.205069 10.382813 0.6679688 3.814697 0.4550277 8.059459 1.1318942 12.4375 2.9804687 2.14748 0.9067485 4.816111 2.3176735 7.195312 4.7539065 2.683147 2.747461 4.648808 6.430174 4.798828 11.105469 0.010221-0.190613 0.026886-0.377826 0.025391-0.574219-0.037182-4.882976-2.05843-8.699166-4.824219-11.53125-2.379201-2.436233-5.047832-3.8471588-7.195312-4.7539065-4.378041-1.8485745-8.622803-2.525441-12.4375-2.9804687-3.880691-0.4628998-7.617648-0.6227869-10.382813-0.6679688-1.382581-0.0225909-2.522407-0.0173664-3.316406-0.0058594z" style="fill:#ffffff;opacity:.2"/>
</svg>

<svg xmlns="http://www.w3.org/2000/svg" width="64" height="64" version="1.1" viewBox="0 0 64 64">
 <path style="opacity:0.2" d="M 18.600442,6.0406793 C 11.701856,6.2748104 6.0389068,12.123948 6.0418972,19.018534 V 32.51909 l 0.1328115,-1.63052 c -0.2329447,1.404523 -0.2329447,2.835613 0,4.240134 l -0.1328115,-1.63052 v 13.336725 c -0.049894,3.520594 1.5987593,7.476759 4.2382648,9.845538 C 12.919668,59.049224 16.052153,60 19.041847,60 c 2.989693,0 6.122179,-0.950776 8.761685,-3.319553 2.639506,-2.368779 4.288158,-6.324944 4.238264,-9.845538 v -1.400377 c 0.691901,-0.06124 0.747179,0.02472 1.499994,-0.06242 3.826183,-0.442832 8.077083,-1.106313 12.464796,-2.948978 2.148132,-0.902131 4.846604,-2.320407 7.238254,-4.790146 2.799008,-2.890387 4.7914,-6.755774 4.753888,-11.682789 -0.03718,-4.882977 -2.05841,-8.698586 -4.824199,-11.530671 C 50.795328,11.983296 48.126722,10.57124 45.979242,9.664493 41.601201,7.8159179 37.356487,7.1393339 33.54179,6.6843061 25.780408,5.7585064 18.600442,6.0406793 18.600442,6.0406793 Z"/>
 <path style="fill:#de554c" d="M 18.600442,5.040687 C 11.701856,5.2748181 6.0389068,11.123956 6.0418972,18.018541 v 13.500557 l 0.1328115,-1.63052 c -0.2329447,1.404522 -0.2329447,2.835613 0,4.240133 L 6.0418972,32.498192 v 13.336724 c -0.049894,3.520595 1.5987593,7.47676 4.2382648,9.845538 2.639506,2.368777 5.771991,3.319554 8.761685,3.319554 2.989693,0 6.122179,-0.950777 8.761685,-3.319554 2.639506,-2.368778 4.288158,-6.324943 4.238264,-9.845538 V 44.43454 c 0.691901,-0.06124 0.747179,0.02472 1.499994,-0.06242 3.826183,-0.442832 8.077083,-1.106314 12.464796,-2.948979 2.148132,-0.90213 4.846604,-2.320407 7.238254,-4.790145 2.799008,-2.890387 4.7914,-6.755774 4.753888,-11.682789 C 57.961546,20.06723 55.940318,16.251621 53.174529,13.419536 50.795328,10.983303 48.126722,9.5712478 45.979242,8.6645003 41.601201,6.8159256 37.356487,6.1393416 33.54179,5.6843138 25.780408,4.7585141 18.600442,5.040687 18.600442,5.040687 Z"/>
 <path style="opacity:0.2;fill:none;stroke:#000000;stroke-width:5.99997711;stroke-linecap:round;stroke-linejoin:round" d="M 19.04255,46.958284 V 18.958392 c 0,0 25.8979,-0.848597 25.9579,7.042773 0.0602,7.89137 -25.9579,6.957173 -25.9579,6.957173"/>
 <path style="fill:#ffffff" d="m 18.945263,14.800959 a 3.0002884,3.0002884 0 0 0 -2.902333,2.999989 v 13.523384 a 3.0002884,3.0002884 0 0 0 0,0.980466 v 13.496043 a 3.0002884,3.0002884 0 1 0 5.999976,0 V 34.675883 c 2.098594,0.03598 5.122755,0.1915 10.347617,-0.414062 3.397449,-0.393763 6.833061,-1.014856 9.74215,-2.238271 1.454544,-0.611708 2.805949,-1.373241 3.925767,-2.531241 1.119816,-1.157999 1.955162,-2.861471 1.941398,-4.671858 -0.01374,-1.807001 -0.86221,-3.48994 -1.984368,-4.640606 -1.122156,-1.150666 -2.47499,-1.916158 -3.929671,-2.53124 -2.909365,-1.230166 -6.340601,-1.860702 -9.730432,-2.265617 -6.779662,-0.809831 -13.410104,-0.582029 -13.410104,-0.582029 z m 3.097643,6.12107 c 1.985303,-0.02313 4.852682,-0.149283 9.601527,0.417968 3.092145,0.369356 6.142069,1.00576 8.105437,1.835931 0.981684,0.415084 1.663124,0.878016 1.968743,1.191401 0.305619,0.313383 0.279989,0.334157 0.281249,0.499998 0.0012,0.162599 0.03764,0.15162 -0.253905,0.453122 -0.291553,0.301495 -0.961297,0.761333 -1.937493,1.171872 -1.952392,0.821077 -5.009817,1.449352 -8.109345,1.808587 -4.769355,0.552766 -7.668924,0.412652 -9.656213,0.38281 z"/>
 <path style="opacity:0.2;fill:#ffffff" d="M 19.84375 5.0097656 C 19.049751 5.0212727 18.601563 5.0390626 18.601562 5.0390625 C 11.702976 5.2731936 6.0399783 11.124945 6.0429688 18.019531 L 6.0429688 19.019531 C 6.0399783 12.124945 11.702976 6.2731936 18.601562 6.0390625 C 18.601563 6.0390627 20.394993 5.9704432 23.160156 6.015625 C 25.925321 6.0608069 29.662278 6.220694 33.542969 6.6835938 C 37.357666 7.1386215 41.602428 7.815488 45.980469 9.6640625 C 48.127949 10.570811 50.79658 11.981736 53.175781 14.417969 C 55.858928 17.16543 57.824589 20.848143 57.974609 25.523438 C 57.98483 25.332825 58.001495 25.145612 58 24.949219 C 57.962818 20.066243 55.94157 16.250053 53.175781 13.417969 C 50.79658 10.981736 48.127949 9.5708102 45.980469 8.6640625 C 41.602428 6.815488 37.357666 6.1386215 33.542969 5.6835938 C 29.662278 5.220694 25.925321 5.0608069 23.160156 5.015625 C 21.777575 4.9930341 20.637749 4.9982586 19.84375 5.0097656 z"/>
</svg>
